dist/assets/img/icons/metro.svg

<svg width="39" height="47" fill="none" xmlns="http://www.w3.org/2000/svg"><g id="Ð¼ÐµÑÑÐ¾" clip-path="url(#clip0_2_7108)" fill="#009EE3"><path id="Vector" d="M16.09 20.37l3.19 5.19 3.39-5.19 1.12 3.2h-1.32v1.79h7.58v-1.79h-1.43L23.67 10.8l-4.19 7.38-4.39-7.38-5.03 12.77H8.71v1.79h7.58v-1.79h-1.27l1.07-3.2z"/><path id="Vector_2" d="M17.78 44.87l15.14-15.15.03-.04c2.25-2.97 3.44-6.51 3.44-10.25 0-9.36-7.61-16.97-16.97-16.97S2.45 10.07 2.45 19.43c0 4.57 1.79 8.86 5.04 12.07.23.23.36.54.36.87 0 .33-.12.64-.35.87a1.235 1.235 0 01-1.73.01C2.05 29.56 0 24.66 0 19.43 0 8.72 8.72 0 19.43 0c10.71 0 19.43 8.72 19.43 19.43 0 4.33-1.39 8.43-4.03 11.85l-.05.06L19.52 46.6l-1.73-1.73h-.01z"/></g><defs><clipPath id="clip0_2_7108"><path fill="#fff" d="M0 0h38.85v46.6H0z"/></clipPath></defs></svg>

<svg width="39" height="47" viewBox="0 0 39 47" fill="none" xmlns="http://www.w3.org/2000/svg">
<g id="&#208;&#188;&#208;&#181;&#209;&#130;&#209;&#128;&#208;&#190;" clip-path="url(#clip0_2_7108)">
<path id="Vector" d="M16.09 20.37L19.28 25.56L22.67 20.37L23.79 23.57H22.47V25.36H30.05V23.57H28.62L23.67 10.8L19.48 18.18L15.09 10.8L10.06 23.57H8.70999V25.36H16.29V23.57H15.02L16.09 20.37Z" fill="#009EE3"/>
<path id="Vector_2" d="M17.78 44.87L32.92 29.72L32.95 29.68C35.2 26.71 36.39 23.17 36.39 19.43C36.39 10.07 28.78 2.46 19.42 2.46C10.06 2.46 2.45 10.07 2.45 19.43C2.45 24 4.24 28.29 7.49 31.5C7.72 31.73 7.85 32.04 7.85 32.37C7.85 32.7 7.73 33.01 7.5 33.24C7.27 33.47 6.96 33.6 6.63 33.6C6.3 33.6 6 33.47 5.77 33.25C2.05 29.56 0 24.66 0 19.43C0 8.72 8.72 0 19.43 0C30.14 0 38.86 8.72 38.86 19.43C38.86 23.76 37.47 27.86 34.83 31.28L34.78 31.34L19.52 46.6L17.79 44.87H17.78Z" fill="#009EE3"/>
</g>
<defs>
<clipPath id="clip0_2_7108">
<rect width="38.85" height="46.6" fill="white"/>
</clipPath>
</defs>
</svg>
